X:1
T: Morag and Brian Wilkinson
C:
R:Strathspey
Q: 128
K:D
M:4/4
L:1/16
A4|:D3F Ad3 BG3 G3F|E3^G Be3 cA3 A4|F3^A cf3 dB3 B3=A|G3F E3D CA3 GC3|
D3F Ad3 BG3 G3F|E3^G Be3 cA3 A4|fa3 fd3 Bd3 A3d|((3c2d2e2) ((3A2B2c2) dD3 D4|
f3a fd3 c3e cA3|d3f dB3 ^A3c AF3|G3B A3G FA3 d3f|((3g2f2e2) ((3f2e2d2) ca3 a4|
f3a fd3 c3e cA3|d3f dB3 ^A3c AF3|G3B A3G FA3 d3B|((3c2d2e2) ((3A2a2g2) fd3 d4:|
